X:18
T:Branzoli 13
C:Branzoli
N:TablEdited by Fred Keller
L:1/8
Q:1/4=120
M:4/4
K:G
"All 1/2 notes an"e4 fg fe | b4 e2 e2 | c'4 b2 a2 | g4 f4 | a4 ba gf | g4 ag fe | 
f4 gf e^d | e4 E4 | F2 A2 B2 c2 | B4 e4 | fa fa fa fa | gb gb eg eg | cA cA cA cA | 
GE GE GE GE | FB ^df ba gf | eg bg e4 | G,2 B,2 E2 G2 | F2 ^D2 E4 | A,2 C2 E2 F2 | 
^D2 F2 B4 | cB cA e2 A2 | BA BG e2 G2 | FB AG FA GF | EG AB c2 ^d2 | e2 B2 c2 A2 | 
B2 G2 A2 F2 | EG AB c2 ^d2 | fe cA GB FB | E2 G,B, EG Be | g2 bg eB GF | E2 [e6B6E6G,6] | 
z8 | 
 

